app/themes/uggwc_pro/assets/images/thema/Logistik.svg

<svg width="16" height="16" viewBox="0 0 16 16" fill="none" xmlns="http://www.w3.org/2000/svg">
<path d="M1.2 2C0.5375 2 0 2.5375 0 3.2V11.2C0 11.8625 0.5375 12.4 1.2 12.4H1.6C1.6 13.725 2.675 14.8 4 14.8C5.325 14.8 6.4 13.725 6.4 12.4H9.6C9.6 13.725 10.675 14.8 12 14.8C13.325 14.8 14.4 13.725 14.4 12.4H15.2C15.6425 12.4 16 12.0425 16 11.6C16 11.1575 15.6425 10.8 15.2 10.8V9.2V8.4V7.9325C15.2 7.5075 15.0325 7.1 14.7325 6.8L12.8 4.8675C12.5 4.5675 12.0925 4.4 11.6675 4.4H10.4V3.2C10.4 2.5375 9.8625 2 9.2 2H1.2ZM10.4 6H11.6675L13.6 7.9325V8.4H10.4V6ZM5.2 12.4C5.2 13.0625 4.6625 13.6 4 13.6C3.3375 13.6 2.8 13.0625 2.8 12.4C2.8 11.7375 3.3375 11.2 4 11.2C4.6625 11.2 5.2 11.7375 5.2 12.4ZM12 13.6C11.3375 13.6 10.8 13.0625 10.8 12.4C10.8 11.7375 11.3375 11.2 12 11.2C12.6625 11.2 13.2 11.7375 13.2 12.4C13.2 13.0625 12.6625 13.6 12 13.6Z" fill="#6E6CFF"/>
</svg>

<svg width="16" height="16" fill="none" xmlns="http://www.w3.org/2000/svg"><path d="M1.2 2A1.2 1.2 0 0 0 0 3.2v8a1.2 1.2 0 0 0 1.2 1.2h.4a2.4 2.4 0 0 0 4.8 0h3.2a2.4 2.4 0 0 0 4.8 0h.8a.8.8 0 1 0 0-1.6V7.932a1.6 1.6 0 0 0-.467-1.132L12.8 4.867a1.6 1.6 0 0 0-1.133-.467H10.4V3.2A1.2 1.2 0 0 0 9.2 2h-8zm9.2 4h1.268L13.6 7.933V8.4h-3.2V6zm-5.2 6.4a1.2 1.2 0 1 1-2.4 0 1.2 1.2 0 0 1 2.4 0zm6.8 1.2a1.2 1.2 0 1 1 0-2.4 1.2 1.2 0 0 1 0 2.4z" fill="#6E6CFF"/></svg>
